X: 161
T: Talisker
R:Reel
C:J. Scott Skinner
S:MacDonald - Skye Collection
N:pg.36
M:C|
L:1/8
K:D
c|d2 fd (AF)GA|Bcde dABc|d2 (fd) AFGA|Bdce d2 d:|
B|AFGA Bcdf|edcB cAAB|AFGA Bcde|fedc d2 dB|
AFGA Bcde|edcB cAAc|d2 fd (AF)GA|BGEC D2D||


